X: 35475
T: Roy's
R: reel
M: 4/4
K: Gmajor
g3 a bgaf|gfge dBAG|DGBG DGBG|ABcd eAAf|
g3 a bgaf|gfge dBAG|DGBG DGBG|ABcA AG G2||
G3 A Bdef|gedB cAAB|G3 A Bdef|gedc BG Gc:|
|:BABc dedc|BA Bc/d/ eAAc|BABc dedB|dega b>g g2:|

